packages/ffe-icons/icons/filled/lg/contact_page.svg

<svg xmlns="http://www.w3.org/2000/svg" height="40" viewBox="0 -960 960 960" width="40"><path d="M480-409.231q29.154 0 49.576-20.423 20.423-20.423 20.423-49.577 0-29.153-20.423-49.576Q509.154-549.23 480-549.23t-49.576 20.423q-20.423 20.423-20.423 49.576 0 29.154 20.423 49.577 20.422 20.423 49.576 20.423ZM330.001-261.54h299.998v-14.538q0-21.307-11.461-37.846-11.462-16.538-31.384-25.384-24.847-10.615-51.577-16.423-26.731-5.808-55.577-5.808-28.846 0-55.577 5.808-26.73 5.808-51.577 16.423-19.922 8.846-31.384 25.384-11.461 16.539-11.461 37.846v14.538Zm387.434 161.539h-474.87q-25.846 0-44.205-18.359-18.359-18.359-18.359-44.205v-634.87q0-25.846 18.359-44.205 18.359-18.359 44.205-18.359h283.512q12.564 0 24.294 5.077 11.731 5.077 20.346 13.436l190.769 190.769q8.359 8.615 13.436 20.346 5.077 11.73 5.077 24.294v443.512q0 25.846-18.359 44.205-18.359 18.359-44.205 18.359Z"/></svg>

<svg xmlns="http://www.w3.org/2000/svg" viewBox="0 -960 960 960" width="32" height="32"><path d="M480-409.23q29.15 0 49.58-20.42Q550-450.08 550-479.23t-20.42-49.58q-20.43-20.42-49.58-20.42t-49.58 20.42Q410-508.38 410-479.23t20.42 49.58q20.43 20.42 49.58 20.42ZM330-261.54h300v-14.54q0-21.31-11.46-37.84-11.46-16.54-31.39-25.39-24.84-10.61-51.57-16.42-26.73-5.81-55.58-5.81-28.85 0-55.58 5.81-26.73 5.81-51.57 16.42-19.93 8.85-31.39 25.39Q330-297.39 330-276.08v14.54ZM717.43-100H242.57q-25.85 0-44.21-18.36T180-162.57v-634.86q0-25.85 18.36-44.21T242.57-860h283.51q12.56 0 24.29 5.08 11.73 5.08 20.35 13.43l190.77 190.77q8.35 8.62 13.43 20.35 5.08 11.73 5.08 24.29v443.51q0 25.85-18.36 44.21T717.43-100Z"/></svg>
